svg/land_rows_horizontal.svg

<svg xmlns="http://www.w3.org/2000/svg" viewBox="0 0 24 24"><path d="M22 20V4c0-1.1-.9-2-2-2H4c-1.1 0-2 .9-2 2v16c0 1.1.9 2 2 2h16c1.1 0 2-.9 2-2M4 6.5V4h16v2.5zM4 11V8.5h16V11zm0 4.5V13h16v2.5zM4 20v-2.5h16V20z"/></svg>

<svg xmlns="http://www.w3.org/2000/svg" id="mdi-land-rows-horizontal" viewBox="0 0 24 24"><path d="M22 20V4C22 2.9 21.1 2 20 2H4C2.9 2 2 2.9 2 4V20C2 21.1 2.9 22 4 22H20C21.1 22 22 21.1 22 20M4 6.5V4H20V6.5H4M4 11V8.5H20V11H4M4 15.5V13H20V15.5H4M4 20V17.5H20V20H4Z" /></svg>
